;FLAVOR:Marlin
;TIME:2581
;Filament used: 0.535782m
;Layer height: 0.06
;Generated with Cura_SteamEngine 3.3.1
M190 S60
M104 S200
M109 S200
M82 ;absolute extrusion mode
G21 ;metric values
G90 ;absolute positioning
M82 ;set extruder to absolute mode
M107 ;start with the fan off
G28 X0 Y0 ;move X/Y to min endstops
G28 Z0 ;move Z to min endstops
G1 Z15.0 F9000 ;move the platform down 15mm
G92 E0 ;zero the extruded length
G1 F200 E3 ;extrude 3mm of feed stock
G92 E0 ;zero the extruded length again
G1 F9000;Put printing message on LCD screen
M117 Printing...
G92 E0
G1 F1500 E-6.5
;LAYER_COUNT:30
;LAYER:0
M107
G0 F3600 X93.76 Y93.396 Z0.3
;TYPE:SKIRT
G1 F1500 E0
G1 F1800 X94.268 Y93.022 E0.03147
G1 X94.72 Y92.78 E0.05705
G1 X95.138 Y92.628 E0.07924
G1 X95.506 Y92.537 E0.09815
G1 X95.754 Y92.52 E0.11056
G1 X124.348 Y92.543 E1.53712
G1 X124.725 Y92.583 E1.55603
G1 X125.028 Y92.677 E1.57186
G1 X125.346 Y92.807 E1.589
G1 X125.724 Y93.018 E1.6106
G1 X126.224 Y93.382 E1.64145
G1 X126.625 Y93.784 E1.66978
G1 X126.996 Y94.298 E1.7014
G1 X127.249 Y94.798 E1.72936
G1 X127.438 Y95.384 E1.76008
G1 X127.525 Y95.937 E1.78801
G1 X127.524 Y124.062 E3.19117
G1 X127.484 Y124.439 E3.21008
G1 X127.387 Y124.751 E3.22638
G1 X127.026 Y125.622 E3.27342
G1 X126.845 Y125.955 E3.29233
G1 X126.629 Y126.213 E3.30912
G1 X126.185 Y126.652 E3.34027
G1 X125.889 Y126.889 E3.35919
G1 X125.61 Y127.034 E3.37488
G1 X124.768 Y127.384 E3.42037
G1 X124.405 Y127.492 E3.43926
G1 X124.077 Y127.522 E3.45569
G1 X95.951 Y127.527 E4.85891
G1 X95.574 Y127.487 E4.87782
G1 X95.265 Y127.391 E4.89396
G1 X94.38 Y127.026 E4.94172
G1 X94.047 Y126.845 E4.96063
G1 X93.786 Y126.628 E4.97757
G1 X93.348 Y126.185 E5.00865
G1 X93.111 Y125.889 E5.02757
G1 X92.964 Y125.605 E5.04352
G1 X92.611 Y124.749 E5.08971
G1 X92.504 Y124.386 E5.10859
G1 X92.475 Y124.063 E5.12477
G1 X92.476 Y95.935 E6.52809
G1 X92.563 Y95.381 E6.55606
G1 X92.752 Y94.797 E6.58669
G1 X93.002 Y94.302 E6.61435
G1 X93.364 Y93.797 E6.64535
G1 X93.76 Y93.396 E6.67347
G0 F3600 X93.997 Y93.719
G1 F1800 X94.505 Y93.345 E6.70494
G1 X94.857 Y93.156 E6.72487
G1 X95.275 Y93.004 E6.74706
G1 X95.754 Y92.92 E6.77133
G1 X124.348 Y92.943 E8.19789
G1 X124.68 Y92.983 E8.21457
G1 X124.877 Y93.047 E8.22491
G1 X125.195 Y93.177 E8.24204
G1 X125.489 Y93.341 E8.25884
G1 X125.989 Y93.705 E8.2897
G1 X126.3 Y94.018 E8.31171
G1 X126.671 Y94.532 E8.34333
G1 X126.868 Y94.921 E8.36509
G1 X127.057 Y95.507 E8.39581
G1 X127.125 Y95.937 E8.41753
G1 X127.124 Y124.062 E9.82069
G1 X127.084 Y124.394 E9.83737
G1 X127.017 Y124.598 E9.84808
G1 X126.656 Y125.469 E9.89512
G1 X126.493 Y125.76 E9.91176
G1 X126.347 Y125.929 E9.92291
G1 X125.903 Y126.368 E9.95406
G1 X125.639 Y126.572 E9.9707
G1 X125.456 Y126.665 E9.98094
G1 X124.614 Y127.015 E10.02643
G1 X124.293 Y127.105 E10.04307
G1 X124.077 Y127.122 E10.05388
G1 X95.951 Y127.127 E11.45709
G1 X95.62 Y127.087 E11.47372
G1 X95.417 Y127.021 E11.48437
G1 X94.532 Y126.656 E11.53213
G1 X94.241 Y126.493 E11.54877
G1 X94.07 Y126.346 E11.56002
G1 X93.632 Y125.903 E11.5911
G1 X93.428 Y125.639 E11.60775
G1 X93.334 Y125.453 E11.61815
G1 X92.981 Y124.597 E11.66434
G1 X92.891 Y124.275 E11.68102
G1 X92.875 Y124.063 E11.69163
G1 X92.876 Y95.935 E13.09494
G1 X92.944 Y95.504 E13.11671
G1 X93.133 Y94.92 E13.14733
G1 X93.327 Y94.535 E13.16884
G1 X93.689 Y94.03 E13.19984
G1 X93.997 Y93.719 E13.22168
G0 F3600 X94.234 Y94.041
G1 F1800 X94.742 Y93.667 E13.25315
G1 X94.993 Y93.532 E13.26737
G1 X95.411 Y93.38 E13.28956
G1 X95.754 Y93.32 E13.30693
G1 X124.348 Y93.343 E14.73349
G1 X124.725 Y93.417 E14.75266
G1 X125.043 Y93.547 E14.7698
G1 X125.254 Y93.665 E14.78186
G1 X125.754 Y94.029 E14.81271
G1 X125.976 Y94.252 E14.82841
G1 X126.347 Y94.766 E14.86004
G1 X126.488 Y95.044 E14.87559
G1 X126.677 Y95.63 E14.90631
G1 X126.725 Y95.937 E14.92181
G1 X126.724 Y124.062 E16.32497
G1 X126.648 Y124.445 E16.34445
G1 X126.287 Y125.316 E16.39149
G1 X126.066 Y125.644 E16.41122
G1 X125.622 Y126.083 E16.44237
G1 X125.303 Y126.295 E16.46148
G1 X124.461 Y126.645 E16.50698
G1 X124.077 Y126.722 E16.52651
G1 X95.951 Y126.727 E17.92973
G1 X95.57 Y126.651 E17.94911
G1 X94.685 Y126.286 E17.99687
G1 X94.355 Y126.065 E18.01668
G1 X93.917 Y125.622 E18.04776
G1 X93.704 Y125.3 E18.06703
G1 X93.351 Y124.444 E18.11322
G1 X93.275 Y124.063 E18.1326
G1 X93.276 Y95.935 E19.53592
G1 X93.325 Y95.627 E19.55147
G1 X93.514 Y95.043 E19.5821
G1 X93.652 Y94.768 E19.59745
G1 X94.014 Y94.263 E19.62845
G1 X94.234 Y94.041 E19.64404
G0 F3600 X94.471 Y94.363
G1 F1800 X94.979 Y93.989 E19.67551
G1 X95.13 Y93.908 E19.68406
G1 X95.548 Y93.756 E19.70625
G1 X95.753 Y93.72 E19.71664
G1 X124.347 Y93.743 E21.1432
G1 X124.574 Y93.788 E21.15474
G1 X124.892 Y93.918 E21.17188
G1 X125.018 Y93.988 E21.17907
G1 X125.518 Y94.352 E21.20993
G1 X125.652 Y94.486 E21.21938
G1 X126.023 Y95 E21.25101
G1 X126.107 Y95.167 E21.26033
G1 X126.296 Y95.753 E21.29105
G1 X126.325 Y95.937 E21.30035
G1 X126.324 Y124.062 E22.70351
G1 X126.278 Y124.292 E22.71521
G1 X125.917 Y125.163 E22.76225
G1 X125.785 Y125.36 E22.77408
G1 X125.341 Y125.799 E22.80523
G1 X125.149 Y125.926 E22.81672
G1 X124.307 Y126.276 E22.86221
G1 X124.077 Y126.322 E22.87391
G1 X95.951 Y126.327 E24.27712
G1 X95.722 Y126.282 E24.28876
G1 X94.837 Y125.917 E24.33652
G1 X94.639 Y125.784 E24.34842
G1 X94.201 Y125.341 E24.37951
G1 X94.073 Y125.148 E24.39106
G1 X93.72 Y124.292 E24.43725
G1 X93.675 Y124.063 E24.4489
G1 X93.676 Y95.935 E25.85221
G1 X93.705 Y95.75 E25.86155
G1 X93.894 Y95.166 E25.89217
G1 X93.977 Y95.001 E25.90139
G1 X94.339 Y94.496 E25.93239
G1 X94.471 Y94.363 E25.94174
G0 F3600 X94.708 Y94.685
G1 F1800 X95.216 Y94.311 E25.97321
G1 X95.267 Y94.284 E25.97609
G1 X95.685 Y94.132 E25.99828
G1 X95.753 Y94.12 E26.00172
G1 X124.347 Y94.143 E27.42828
G1 X124.423 Y94.158 E27.43215
G1 X124.741 Y94.288 E27.44929
G1 X124.783 Y94.311 E27.45168
G1 X125.283 Y94.675 E27.48253
G1 X125.327 Y94.72 E27.48567
G1 X125.698 Y95.234 E27.5173
G1 X125.726 Y95.29 E27.52042
G1 X125.915 Y95.876 E27.55114
G1 X125.925 Y95.937 E27.55422
G1 X125.924 Y124.062 E28.95739
G1 X125.909 Y124.139 E28.9613
G1 X125.548 Y125.01 E29.00834
G1 X125.504 Y125.075 E29.01226
G1 X125.06 Y125.514 E29.04341
G1 X124.996 Y125.557 E29.04725
G1 X124.154 Y125.907 E29.09274
G1 X124.077 Y125.922 E29.09666
G1 X95.951 Y125.927 E30.49987
G1 X95.875 Y125.912 E30.50374
G1 X94.99 Y125.547 E30.5515
G1 X94.924 Y125.503 E30.55545
G1 X94.486 Y125.06 E30.58653
G1 X94.443 Y124.995 E30.59042
G1 X94.09 Y124.139 E30.63662
G1 X94.075 Y124.063 E30.64048
G1 X94.076 Y95.935 E32.04379
G1 X94.086 Y95.873 E32.04693
G1 X94.275 Y95.289 E32.07755
G1 X94.302 Y95.234 E32.08061
G1 X94.664 Y94.729 E32.11161
G1 X94.708 Y94.685 E32.11471
G1 F1500 E25.61471
G0 F3600 X95.024 Y95.618
G0 X98.298 Y105.797
G0 X98.798 Y105.797
;TYPE:WALL-OUTER
G1 F1500 E32.11471
G1 F1800 X98.798 Y106.564 E32.15298
G1 X98.717 Y106.613 E32.1577
G1 X98.716 Y117.891 E32.72036
G1 X98.798 Y117.938 E32.72508
G1 X98.798 Y118.702 E32.76319
G1 X100.09 Y118.702 E32.82765
G1 X100.862 Y119.158 E32.87238
G1 X119.639 Y119.159 E33.80917
G1 X120.41 Y118.702 E33.85389
G1 X121.703 Y118.702 E33.91839
G1 X121.703 Y117.935 E33.95666
G1 X121.783 Y117.886 E33.96134
G1 X121.783 Y106.613 E34.52375
G1 X121.703 Y106.565 E34.52841
G1 X121.703 Y105.797 E34.56672
G1 X120.408 Y105.797 E34.63133
G1 X119.638 Y105.342 E34.67595
G1 X100.861 Y105.341 E35.61274
G1 X100.092 Y105.797 E35.65734
G1 X98.798 Y105.797 E35.7219
G0 F3600 X98.798 Y105.997
G0 X98.298 Y105.997
G0 X98.37 Y105.369
G0 X124.157 Y95.017
G0 X124.295 Y94.536
G1 F1800 X124.567 Y94.647 E35.73656
G1 X124.823 Y94.807 E35.75162
G1 X125.018 Y94.974 E35.76443
G1 X125.205 Y95.191 E35.77872
G1 X125.354 Y95.434 E35.79294
G1 X125.462 Y95.696 E35.80708
G1 X125.526 Y95.962 E35.82073
G1 X125.55 Y96.25 E35.83515
G1 X125.55 Y123.75 E37.20713
G1 X125.528 Y124.023 E37.22079
G1 X125.466 Y124.285 E37.23422
G1 X125.352 Y124.568 E37.24944
G1 X125.205 Y124.809 E37.26353
G1 X125.026 Y125.018 E37.27726
G1 X124.809 Y125.205 E37.29155
G1 X124.566 Y125.354 E37.30577
G1 X124.304 Y125.462 E37.31991
G1 X124.038 Y125.526 E37.33356
G1 X123.746 Y125.55 E37.34817
G1 X96.253 Y125.55 E38.7198
G1 X95.974 Y125.528 E38.73377
G1 X95.715 Y125.466 E38.74705
G1 X95.432 Y125.352 E38.76228
G1 X95.191 Y125.205 E38.77636
G1 X94.982 Y125.026 E38.79009
G1 X94.795 Y124.809 E38.80438
G1 X94.646 Y124.566 E38.8186
G1 X94.538 Y124.304 E38.83274
G1 X94.474 Y124.038 E38.84639
G1 X94.45 Y123.75 E38.86081
G1 X94.45 Y96.25 E40.23279
G1 X94.472 Y95.974 E40.2466
G1 X94.534 Y95.715 E40.25989
G1 X94.648 Y95.432 E40.27511
G1 X94.795 Y95.191 E40.28919
G1 X94.975 Y94.982 E40.30295
G1 X95.187 Y94.798 E40.31696
G1 X95.434 Y94.646 E40.33143
G1 X95.693 Y94.539 E40.34541
G1 X95.789 Y94.517 E40.35032
G1 X124.212 Y94.517 E41.76835
G1 X124.295 Y94.536 E41.7726
G0 F3600 X124.48 Y94.611
G0 X124.176 Y94.919
;TYPE:WALL-INNER
G1 F1800 X124.383 Y95.004 E41.78376
G1 X124.585 Y95.13 E41.79564
G1 X124.735 Y95.259 E41.80551
G1 X124.881 Y95.427 E41.81661
G1 X124.996 Y95.616 E41.82765
G1 X125.08 Y95.819 E41.83861
G1 X125.129 Y96.025 E41.84918
G1 X125.15 Y96.271 E41.86149
G1 X125.15 Y123.73 E43.23143
G1 X125.131 Y123.964 E43.24314
G1 X125.084 Y124.163 E43.25334
G1 X124.993 Y124.39 E43.26554
G1 X124.883 Y124.57 E43.27607
G1 X124.741 Y124.735 E43.28693
G1 X124.573 Y124.881 E43.29803
G1 X124.384 Y124.996 E43.30907
G1 X124.181 Y125.08 E43.32003
G1 X123.975 Y125.129 E43.3306
G1 X123.725 Y125.15 E43.34311
G1 X96.271 Y125.15 E44.7128
G1 X96.035 Y125.131 E44.72461
G1 X95.836 Y125.084 E44.73481
G1 X95.61 Y124.993 E44.74697
G1 X95.43 Y124.883 E44.75749
G1 X95.265 Y124.741 E44.76835
G1 X95.119 Y124.573 E44.77946
G1 X95.004 Y124.384 E44.79049
G1 X94.92 Y124.181 E44.80145
G1 X94.871 Y123.975 E44.81202
G1 X94.85 Y123.729 E44.82434
G1 X94.85 Y96.269 E46.19432
G1 X94.869 Y96.035 E46.20603
G1 X94.916 Y95.836 E46.21624
G1 X95.007 Y95.61 E46.22839
G1 X95.117 Y95.429 E46.23896
G1 X95.26 Y95.264 E46.24985
G1 X95.421 Y95.124 E46.26049
G1 X95.617 Y95.004 E46.27196
G1 X95.834 Y94.917 E46.28362
G1 X124.176 Y94.919 E47.69761
G0 F3600 X124.157 Y95.017
G0 X98.328 Y105.327
G0 X98.398 Y105.397
G1 F1800 X98.398 Y106.338 E47.74456
G1 X98.317 Y106.387 E47.74928
G1 X98.316 Y118.123 E48.33479
G1 X98.398 Y118.17 E48.33951
G1 X98.398 Y119.102 E48.38601
G1 X99.982 Y119.102 E48.46503
G1 X100.753 Y119.558 E48.50972
G1 X119.749 Y119.559 E49.45744
G1 X120.52 Y119.102 E49.50215
G1 X122.103 Y119.102 E49.58113
G1 X122.103 Y118.159 E49.62817
G1 X122.183 Y118.11 E49.63285
G1 X122.183 Y106.387 E50.21772
G1 X122.103 Y106.339 E50.22237
G1 X122.103 Y105.397 E50.26937
G1 X120.516 Y105.397 E50.34854
G1 X119.747 Y104.942 E50.39312
G1 X100.751 Y104.941 E51.34084
G1 X99.982 Y105.397 E51.38544
G1 X98.398 Y105.397 E51.46447
G0 F3600 X98.008 Y105.007
;TYPE:SKIN
G1 F1800 X98.008 Y106.118 E51.51989
G1 X97.927 Y106.167 E51.52462
G1 X97.926 Y118.349 E52.13238
G1 X98.008 Y118.396 E52.13709
G1 X98.008 Y119.492 E52.19177
G1 X99.874 Y119.492 E52.28487
G1 X100.646 Y119.948 E52.3296
G1 X119.856 Y119.949 E53.28799
G1 X120.626 Y119.492 E53.33266
G1 X122.493 Y119.492 E53.42581
G1 X122.493 Y118.377 E53.48144
G1 X122.573 Y118.328 E53.48612
G1 X122.573 Y106.166 E54.09288
G1 X122.493 Y106.118 E54.09754
G1 X122.493 Y105.007 E54.15296
G1 X120.624 Y105.007 E54.24621
G1 X119.854 Y104.552 E54.29083
G1 X100.644 Y104.551 E55.24922
G1 X99.876 Y105.007 E55.29378
G1 X98.008 Y105.007 E55.38698
G0 F3600 X95.24 Y96.269
G1 F1800 X95.254 Y96.105 E55.39519
G1 X95.29 Y95.951 E55.40308
G1 X95.357 Y95.786 E55.41196
G1 X95.435 Y95.657 E55.41948
G1 X95.537 Y95.541 E55.42719
G1 X95.652 Y95.44 E55.43483
G1 X95.793 Y95.354 E55.44307
G1 X95.909 Y95.307 E55.44931
G1 X124.099 Y95.309 E56.85572
G1 X124.203 Y95.352 E56.86133
G1 X124.355 Y95.447 E56.87027
G1 X124.46 Y95.537 E56.87717
G1 X124.563 Y95.655 E56.88499
G1 X124.648 Y95.796 E56.8932
G1 X124.705 Y95.933 E56.9006
G1 X124.745 Y96.096 E56.90898
G1 X124.76 Y96.271 E56.91774
G1 X124.76 Y123.73 E58.28767
G1 X124.747 Y123.894 E58.29588
G1 X124.71 Y124.048 E58.30378
G1 X124.643 Y124.214 E58.31271
G1 X124.567 Y124.339 E58.32001
G1 X124.462 Y124.46 E58.32801
G1 X124.345 Y124.563 E58.33578
G1 X124.203 Y124.649 E58.34406
G1 X124.067 Y124.705 E58.3514
G1 X123.904 Y124.745 E58.35978
G1 X123.716 Y124.76 E58.36919
G1 X96.277 Y124.76 E59.73812
G1 X96.104 Y124.746 E59.74678
G1 X95.954 Y124.711 E59.75447
G1 X95.784 Y124.642 E59.76362
G1 X95.661 Y124.567 E59.77081
G1 X95.54 Y124.462 E59.7788
G1 X95.437 Y124.345 E59.78658
G1 X95.351 Y124.203 E59.79486
G1 X95.295 Y124.067 E59.8022
G1 X95.255 Y123.904 E59.81057
G1 X95.24 Y123.729 E59.81933
G1 X95.24 Y96.269 E61.18932
G0 F3600 X96.295 Y124.579
G1 F1800 X95.419 Y123.704 E61.25109
G1 X95.349 Y123.634
G0 F3600 X95.419 Y123.138
G1 F1800 X96.86 Y124.579 E61.35276
G1 X96.93 Y124.649
G0 F3600 X97.426 Y124.579
G1 F1800 X95.419 Y122.572 E61.49436
G1 X95.349 Y122.502
G0 F3600 X95.419 Y122.007
G1 F1800 X97.992 Y124.579 E61.67587
G1 X98.062 Y124.649
G0 F3600 X98.557 Y124.579
G1 F1800 X95.419 Y121.441 E61.89727
G1 X95.349 Y121.371
G0 F3600 X95.419 Y120.875
G1 F1800 X99.123 Y124.579 E62.15861
G1 X99.193 Y124.649
G0 F3600 X99.689 Y124.579
G1 F1800 X95.419 Y120.309 E62.45988
G1 X95.349 Y120.239
G0 F3600 X95.419 Y119.744
G1 F1800 X100.255 Y124.579 E62.80105
G1 X100.325 Y124.649
G0 F3600 X100.82 Y124.579
G1 F1800 X95.419 Y119.178 E63.18212
G1 X95.349 Y119.108
G0 F3600 X95.419 Y118.612
G1 F1800 X101.386 Y124.579 E63.60312
G1 X101.456 Y124.649
G0 F3600 X101.952 Y124.579
G1 F1800 X95.419 Y118.047 E64.06403
G1 X95.349 Y117.977
G0 F3600 X95.419 Y117.481
G1 F1800 X102.517 Y124.579 E64.56483
G1 X102.587 Y124.649
G0 F3600 X103.083 Y124.579
G1 F1800 X98.175 Y119.671 E64.91112
G1 X98.105 Y119.601
G0 F3600 X97.827 Y119.323
G1 F1800 X95.419 Y116.915 E65.08101
G1 X95.349 Y116.845
G0 F3600 X95.419 Y116.35
G1 F1800 X97.827 Y118.757 E65.25087
G1 X97.897 Y118.827
G0 F3600 X97.746 Y118.111
G1 F1800 X95.419 Y115.784 E65.41506
G1 X95.349 Y115.714
G0 F3600 X95.419 Y115.218
G1 F1800 X97.746 Y117.545 E65.57924
G1 X97.816 Y117.615
G0 F3600 X97.746 Y116.98
G1 F1800 X95.419 Y114.653 E65.74342
G1 X95.349 Y114.583
G0 F3600 X95.419 Y114.087
G1 F1800 X97.746 Y116.414 E65.9076
G1 X97.816 Y116.484
G0 F3600 X97.746 Y115.848
G1 F1800 X95.419 Y113.521 E66.07179
G1 X95.349 Y113.451
G0 F3600 X95.419 Y112.956
G1 F1800 X97.746 Y115.283 E66.23597
G1 X97.816 Y115.353
G0 F3600 X97.746 Y114.717
G1 F1800 X95.419 Y112.39 E66.40015
G1 X95.349 Y112.32
G0 F3600 X95.419 Y111.824
G1 F1800 X97.746 Y114.151 E66.56433
G1 X97.816 Y114.221
G0 F3600 X97.746 Y113.586
G1 F1800 X95.419 Y111.259 E66.72852
G1 X95.349 Y111.189
G0 F3600 X95.419 Y110.693
G1 F1800 X97.746 Y113.02 E66.8927
G1 X97.816 Y113.09
G0 F3600 X97.746 Y112.454
G1 F1800 X95.419 Y110.127 E67.05688
G1 X95.349 Y110.057
G0 F3600 X95.419 Y109.561
G1 F1800 X97.746 Y111.889 E67.2211
G1 X97.816 Y111.959
G0 F3600 X97.746 Y111.323
G1 F1800 X95.419 Y108.996 E67.38528
G1 X95.349 Y108.926
G0 F3600 X95.419 Y108.43
G1 F1800 X97.746 Y110.757 E67.54946
G1 X97.816 Y110.827
G0 F3600 X97.746 Y110.191
G1 F1800 X95.419 Y107.864 E67.71365
G1 X95.349 Y107.794
G0 F3600 X95.419 Y107.299
G1 F1800 X97.746 Y109.626 E67.87783
G1 X97.816 Y109.696
G0 F3600 X97.746 Y109.06
G1 F1800 X95.419 Y106.733 E68.04201
G1 X95.349 Y106.663
G0 F3600 X95.419 Y106.167
G1 F1800 X97.746 Y108.494 E68.20619
G1 X97.816 Y108.564
G0 F3600 X97.746 Y107.929
G1 F1800 X95.419 Y105.602 E68.37038
G1 X95.349 Y105.532
G0 F3600 X95.419 Y105.036
G1 F1800 X97.746 Y107.363 E68.53456
G1 X97.816 Y107.433
G0 F3600 X97.746 Y106.797
G1 F1800 X95.419 Y104.47 E68.69874
G1 X95.349 Y104.4
G0 F3600 X95.419 Y103.905
G1 F1800 X97.746 Y106.232 E68.86292
G1 X97.816 Y106.302
G0 F3600 X97.828 Y105.747
G1 F1800 X95.419 Y103.339 E69.03286
G1 X95.349 Y103.269
G0 F3600 X95.419 Y102.773
G1 F1800 X97.828 Y105.182 E69.20282
G1 X97.898 Y105.252
G0 F3600 X98.038 Y104.826
G1 F1800 X95.419 Y102.208 E69.38757
G1 X95.349 Y102.138
G0 F3600 X95.419 Y101.642
G1 F1800 X98.603 Y104.826 E69.61222
G1 X98.673 Y104.896
G0 F3600 X99.169 Y104.826
G1 F1800 X95.419 Y101.076 E69.8768
G1 X95.349 Y101.006
G0 F3600 X95.419 Y100.51
