;FLAVOR:Marlin
;TIME:8335
;Filament used: 1.79851m
;Layer height: 0.06
;Generated with Cura_SteamEngine 3.3.1
M190 S60
M104 S200
M109 S200
M82 ;absolute extrusion mode
G21 ;metric values
G90 ;absolute positioning
M82 ;set extruder to absolute mode
M107 ;start with the fan off
G28 X0 Y0 ;move X/Y to min endstops
G28 Z0 ;move Z to min endstops
G1 Z15.0 F9000 ;move the platform down 15mm
G92 E0 ;zero the extruded length
G1 F200 E3 ;extrude 3mm of feed stock
G92 E0 ;zero the extruded length again
G1 F9000;Put printing message on LCD screen
M117 Printing...
G92 E0
G1 F1500 E-6.5
;LAYER_COUNT:34
;LAYER:0
M107
G0 F3600 X70.272 Y60.185 Z0.3
;TYPE:SKIRT
G1 F1500 E0
G1 F1800 X72.155 Y58.06 E0.14165
G1 X72.298 Y57.916 E0.15178
G1 X74.353 Y56.068 E0.28966
G1 X74.525 Y55.931 E0.30063
G1 X76.733 Y54.387 E0.43505
G1 X76.93 Y54.267 E0.44656
G1 X79.251 Y53.052 E0.57726
G1 X79.468 Y52.956 E0.58909
G1 X81.888 Y52.072 E0.71763
G1 X82.127 Y52.003 E0.73004
G1 X84.613 Y51.467 E0.85692
G1 X84.865 Y51.432 E0.86961
G1 X87.376 Y51.254 E0.9952
G1 X87.503 Y51.249 E1.00154
G1 X132.511 Y51.249 E3.247
G1 X132.64 Y51.254 E3.25344
G1 X135.143 Y51.434 E3.37864
G1 X135.393 Y51.469 E3.39123
G1 X137.873 Y52.003 E3.5178
G1 X138.111 Y52.072 E3.53016
G1 X140.531 Y52.955 E3.65868
G1 X140.749 Y53.052 E3.67058
G1 X143.07 Y54.268 E3.80131
G1 X143.266 Y54.386 E3.81272
G1 X145.475 Y55.929 E3.94715
G1 X145.648 Y56.067 E3.95819
G1 X147.702 Y57.914 E4.09601
G1 X147.846 Y58.06 E4.10624
G1 X149.727 Y60.187 E4.2479
G1 X149.85 Y60.342 E4.25777
G1 X151.532 Y62.729 E4.40345
G1 X151.631 Y62.886 E4.41271
G1 X153.085 Y65.481 E4.56111
G1 X153.165 Y65.641 E4.57004
G1 X154.384 Y68.432 E4.72198
G1 X154.445 Y68.594 E4.73062
G1 X155.407 Y71.542 E4.88533
G1 X155.451 Y71.698 E4.89342
G1 X156.155 Y74.773 E5.0508
G1 X156.184 Y74.936 E5.05906
G1 X156.604 Y78.07 E5.21681
G1 X156.618 Y78.229 E5.22477
G1 X156.759 Y81.418 E5.38403
G1 X156.761 Y81.498 E5.38802
G1 X156.76 Y138.497 E8.23171
G1 X156.758 Y138.577 E8.23571
G1 X156.616 Y141.773 E8.39531
G1 X156.602 Y141.932 E8.40328
G1 X156.181 Y145.075 E8.56148
G1 X156.152 Y145.236 E8.56964
G1 X155.453 Y148.299 E8.72638
G1 X155.409 Y148.458 E8.73462
G1 X154.446 Y151.408 E8.88943
G1 X154.385 Y151.569 E8.89802
G1 X153.168 Y154.358 E9.04984
G1 X153.088 Y154.519 E9.05881
G1 X151.633 Y157.113 E9.20719
G1 X151.535 Y157.269 E9.21638
G1 X149.852 Y159.658 E9.36218
G1 X149.728 Y159.814 E9.37212
G1 X147.846 Y161.94 E9.51377
G1 X147.701 Y162.086 E9.52404
G1 X145.646 Y163.933 E9.66189
G1 X145.475 Y164.069 E9.67279
G1 X143.266 Y165.614 E9.80728
G1 X143.068 Y165.734 E9.81883
G1 X140.747 Y166.948 E9.94951
G1 X140.532 Y167.043 E9.96123
G1 X138.123 Y167.925 E10.08922
G1 X137.883 Y167.995 E10.10169
G1 X135.387 Y168.533 E10.22908
G1 X135.135 Y168.569 E10.24178
G1 X132.617 Y168.747 E10.36772
G1 X132.49 Y168.751 E10.37405
G1 X87.503 Y168.75 E12.61847
G1 X87.375 Y168.745 E12.62486
G1 X84.851 Y168.565 E12.7511
G1 X84.6 Y168.53 E12.76374
G1 X82.115 Y167.995 E12.89056
G1 X81.875 Y167.925 E12.90303
G1 X79.455 Y167.039 E13.0316
G1 X79.238 Y166.943 E13.04344
G1 X76.916 Y165.726 E13.17423
G1 X76.719 Y165.606 E13.18574
G1 X74.514 Y164.061 E13.32007
G1 X74.343 Y163.925 E13.33097
G1 X72.289 Y162.077 E13.46881
G1 X72.145 Y161.931 E13.47904
G1 X70.264 Y159.804 E13.6207
G1 X70.14 Y159.647 E13.63068
G1 X68.461 Y157.259 E13.77632
G1 X68.363 Y157.104 E13.78547
G1 X66.909 Y154.51 E13.93383
G1 X66.829 Y154.35 E13.94276
G1 X65.61 Y151.557 E14.09479
G1 X65.549 Y151.395 E14.10343
G1 X64.589 Y148.448 E14.25806
G1 X64.545 Y148.291 E14.26619
G1 X63.844 Y145.226 E14.42306
G1 X63.815 Y145.064 E14.43127
G1 X63.396 Y141.933 E14.58886
G1 X63.382 Y141.774 E14.59683
G1 X63.24 Y138.587 E14.75599
G1 X63.238 Y138.507 E14.75998
G1 X63.238 Y81.503 E17.60392
G1 X63.24 Y81.423 E17.60791
G1 X63.383 Y78.222 E17.76777
G1 X63.397 Y78.062 E17.77578
G1 X63.819 Y74.924 E17.93375
G1 X63.848 Y74.764 E17.94186
G1 X64.548 Y71.694 E18.09895
G1 X64.592 Y71.535 E18.10718
G1 X65.556 Y68.585 E18.26202
G1 X65.617 Y68.424 E18.27061
G1 X66.831 Y65.642 E18.42204
G1 X66.911 Y65.481 E18.43101
G1 X68.366 Y62.887 E18.5794
G1 X68.464 Y62.731 E18.58859
G1 X70.147 Y60.342 E18.73438
G1 X70.272 Y60.185 E18.74439
G0 F3600 X70.571 Y60.451
G1 F1800 X72.454 Y58.326 E18.88604
G1 X72.566 Y58.213 E18.89398
G1 X74.621 Y56.365 E19.03186
G1 X74.755 Y56.259 E19.04039
G1 X76.963 Y54.715 E19.17481
G1 X77.116 Y54.622 E19.18374
G1 X79.437 Y53.407 E19.31444
G1 X79.606 Y53.332 E19.32366
G1 X82.026 Y52.448 E19.4522
G1 X82.211 Y52.394 E19.46182
G1 X84.697 Y51.858 E19.58869
G1 X84.893 Y51.831 E19.59856
G1 X87.404 Y51.653 E19.72415
G1 X87.503 Y51.649 E19.7291
G1 X132.511 Y51.649 E21.97455
G1 X132.611 Y51.653 E21.97955
G1 X135.114 Y51.833 E22.10475
G1 X135.309 Y51.86 E22.11457
G1 X137.789 Y52.394 E22.24113
G1 X137.974 Y52.448 E22.25075
G1 X140.394 Y53.331 E22.37927
G1 X140.564 Y53.406 E22.38854
G1 X142.885 Y54.622 E22.51926
G1 X143.037 Y54.714 E22.52812
G1 X145.246 Y56.257 E22.66256
G1 X145.38 Y56.364 E22.67111
G1 X147.434 Y58.211 E22.80892
G1 X147.547 Y58.325 E22.81693
G1 X149.428 Y60.452 E22.95859
G1 X149.523 Y60.573 E22.96626
G1 X151.205 Y62.96 E23.11195
G1 X151.282 Y63.082 E23.11915
G1 X152.736 Y65.677 E23.26755
G1 X152.798 Y65.801 E23.27446
G1 X154.017 Y68.592 E23.42641
G1 X154.065 Y68.718 E23.43314
G1 X155.027 Y71.666 E23.58785
G1 X155.061 Y71.788 E23.59416
G1 X155.765 Y74.863 E23.75155
G1 X155.788 Y74.989 E23.75794
G1 X156.208 Y78.123 E23.91569
G1 X156.219 Y78.247 E23.9219
G1 X156.36 Y81.436 E24.08116
G1 X156.361 Y81.498 E24.08425
G1 X156.36 Y138.497 E26.92794
G1 X156.359 Y138.559 E26.93103
G1 X156.217 Y141.755 E27.09064
G1 X156.206 Y141.879 E27.09685
G1 X155.785 Y145.022 E27.25506
G1 X155.762 Y145.147 E27.2614
G1 X155.063 Y148.21 E27.41814
G1 X155.029 Y148.333 E27.42451
G1 X154.066 Y151.283 E27.57933
G1 X154.018 Y151.409 E27.58605
G1 X152.801 Y154.198 E27.73787
G1 X152.739 Y154.323 E27.74483
G1 X151.284 Y156.917 E27.89321
G1 X151.208 Y157.038 E27.90034
G1 X149.525 Y159.427 E28.04613
G1 X149.428 Y159.549 E28.05391
G1 X147.546 Y161.675 E28.19557
G1 X147.434 Y161.788 E28.2035
G1 X145.379 Y163.635 E28.34135
G1 X145.245 Y163.741 E28.34988
G1 X143.036 Y165.286 E28.48436
G1 X142.883 Y165.38 E28.49332
G1 X140.562 Y166.594 E28.624
G1 X140.394 Y166.668 E28.63316
G1 X137.985 Y167.55 E28.76115
G1 X137.799 Y167.604 E28.77081
G1 X135.303 Y168.142 E28.8982
G1 X135.107 Y168.17 E28.90807
G1 X132.589 Y168.348 E29.03401
G1 X132.49 Y168.351 E29.03895
G1 X87.503 Y168.35 E31.28336
G1 X87.403 Y168.346 E31.28836
G1 X84.879 Y168.166 E31.4146
G1 X84.684 Y168.139 E31.42442
G1 X82.199 Y167.604 E31.55124
G1 X82.013 Y167.55 E31.5609
G1 X79.593 Y166.664 E31.68947
G1 X79.424 Y166.589 E31.6987
G1 X77.102 Y165.372 E31.82949
G1 X76.949 Y165.279 E31.83842
G1 X74.744 Y163.734 E31.97275
G1 X74.611 Y163.628 E31.98123
G1 X72.557 Y161.78 E32.11908
G1 X72.444 Y161.666 E32.12708
G1 X70.563 Y159.539 E32.26874
G1 X70.467 Y159.417 E32.27649
G1 X68.788 Y157.029 E32.42213
G1 X68.712 Y156.909 E32.42921
G1 X67.258 Y154.315 E32.57757
G1 X67.196 Y154.19 E32.58453
G1 X65.977 Y151.397 E32.73657
G1 X65.929 Y151.271 E32.7433
G1 X64.969 Y148.324 E32.89793
G1 X64.935 Y148.202 E32.90425
G1 X64.234 Y145.137 E33.06111
G1 X64.211 Y145.011 E33.0675
G1 X63.792 Y141.88 E33.2251
G1 X63.781 Y141.756 E33.23131
G1 X63.639 Y138.569 E33.39047
G1 X63.638 Y138.507 E33.39356
G1 X63.638 Y81.503 E36.2375
G1 X63.639 Y81.441 E36.24059
G1 X63.782 Y78.24 E36.40045
G1 X63.793 Y78.115 E36.40671
G1 X64.215 Y74.977 E36.56468
G1 X64.238 Y74.853 E36.57097
G1 X64.938 Y71.783 E36.72806
G1 X64.972 Y71.659 E36.73448
G1 X65.936 Y68.709 E36.88931
G1 X65.984 Y68.584 E36.89599
G1 X67.198 Y65.802 E37.04743
G1 X67.26 Y65.677 E37.05439
G1 X68.715 Y63.083 E37.20277
G1 X68.791 Y62.962 E37.2099
G1 X70.474 Y60.573 E37.35569
G1 X70.571 Y60.451 E37.36347
G0 F3600 X70.871 Y60.716
G1 F1800 X72.754 Y58.591 E37.50512
G1 X72.833 Y58.51 E37.51077
G1 X74.888 Y56.662 E37.64865
G1 X74.984 Y56.586 E37.65476
G1 X77.192 Y55.042 E37.78917
G1 X77.301 Y54.976 E37.79553
G1 X79.622 Y53.761 E37.92623
G1 X79.743 Y53.708 E37.93282
G1 X82.163 Y52.824 E38.06136
G1 X82.295 Y52.785 E38.06823
G1 X84.781 Y52.249 E38.19511
G1 X84.921 Y52.23 E38.20215
G1 X87.432 Y52.052 E38.32774
G1 X87.503 Y52.049 E38.33129
G1 X132.511 Y52.049 E40.57675
G1 X132.583 Y52.052 E40.58034
G1 X135.086 Y52.232 E40.70554
G1 X135.224 Y52.251 E40.71249
G1 X137.704 Y52.785 E40.83905
G1 X137.837 Y52.824 E40.84597
G1 X140.257 Y53.707 E40.97449
G1 X140.378 Y53.76 E40.98108
G1 X142.699 Y54.976 E41.1118
G1 X142.808 Y55.042 E41.11816
G1 X145.017 Y56.585 E41.25259
G1 X145.113 Y56.661 E41.2587
G1 X147.167 Y58.508 E41.39651
G1 X147.247 Y58.59 E41.40223
G1 X149.128 Y60.717 E41.54389
G1 X149.196 Y60.803 E41.54936
G1 X150.878 Y63.19 E41.69504
G1 X150.933 Y63.277 E41.70017
G1 X152.387 Y65.872 E41.84858
G1 X152.431 Y65.961 E41.85353
G1 X153.65 Y68.752 E42.00548
G1 X153.685 Y68.842 E42.01029
G1 X154.647 Y71.79 E42.165
G1 X154.671 Y71.877 E42.1695
G1 X155.375 Y74.952 E42.32689
G1 X155.391 Y75.042 E42.33145
G1 X155.811 Y78.176 E42.4892
G1 X155.819 Y78.265 E42.49366
G1 X155.96 Y81.454 E42.65291
G1 X155.961 Y81.498 E42.65511
G1 X155.96 Y138.497 E45.4988
G1 X155.959 Y138.541 E45.501
G1 X155.817 Y141.737 E45.6606
G1 X155.809 Y141.826 E45.66506
G1 X155.388 Y144.969 E45.82327
G1 X155.372 Y145.058 E45.82778
G1 X154.673 Y148.121 E45.98452
G1 X154.649 Y148.209 E45.98907
G1 X153.686 Y151.159 E46.14389
G1 X153.652 Y151.249 E46.14869
G1 X152.435 Y154.038 E46.3005
G1 X152.39 Y154.127 E46.30548
G1 X150.935 Y156.721 E46.45386
G1 X150.881 Y156.808 E46.45897
G1 X149.198 Y159.197 E46.60477
G1 X149.129 Y159.284 E46.61031
G1 X147.247 Y161.41 E46.75196
G1 X147.166 Y161.491 E46.75768
G1 X145.111 Y163.338 E46.89552
G1 X145.016 Y163.413 E46.90156
G1 X142.807 Y164.958 E47.03605
G1 X142.697 Y165.025 E47.04248
G1 X140.376 Y166.239 E47.17316
G1 X140.257 Y166.292 E47.17965
G1 X137.848 Y167.174 E47.30764
G1 X137.715 Y167.213 E47.31456
G1 X135.219 Y167.751 E47.44194
G1 X135.079 Y167.771 E47.449
G1 X132.561 Y167.949 E47.57494
G1 X132.49 Y167.951 E47.57848
G1 X87.503 Y167.95 E49.82289
G1 X87.432 Y167.947 E49.82643
G1 X84.908 Y167.767 E49.95268
G1 X84.769 Y167.748 E49.95968
G1 X82.284 Y167.213 E50.08649
G1 X82.15 Y167.174 E50.09346
G1 X79.73 Y166.288 E50.22203
G1 X79.61 Y166.235 E50.22857
G1 X77.288 Y165.018 E50.35937
G1 X77.178 Y164.951 E50.36579
G1 X74.973 Y163.406 E50.50012
G1 X74.878 Y163.33 E50.50619
G1 X72.824 Y161.482 E50.64403
G1 X72.744 Y161.401 E50.64971
G1 X70.863 Y159.274 E50.79137
G1 X70.794 Y159.187 E50.79691
G1 X69.115 Y156.799 E50.94255
G1 X69.061 Y156.713 E50.94761
G1 X67.607 Y154.119 E51.09597
G1 X67.562 Y154.03 E51.10095
G1 X66.343 Y151.237 E51.25299
G1 X66.309 Y151.147 E51.25779
G1 X65.349 Y148.2 E51.41242
G1 X65.325 Y148.113 E51.41692
G1 X64.624 Y145.048 E51.57378
G1 X64.608 Y144.958 E51.57834
G1 X64.189 Y141.827 E51.73594
G1 X64.181 Y141.739 E51.74035
G1 X64.039 Y138.552 E51.89951
G1 X64.038 Y138.507 E51.90175
G1 X64.038 Y81.503 E54.74569
G1 X64.039 Y81.458 E54.74794
G1 X64.182 Y78.257 E54.9078
G1 X64.19 Y78.169 E54.9122
G1 X64.612 Y75.031 E55.07017
G1 X64.628 Y74.942 E55.07468
G1 X65.328 Y71.872 E55.23177
G1 X65.352 Y71.783 E55.23637
G1 X66.316 Y68.833 E55.39121
G1 X66.35 Y68.744 E55.39596
G1 X67.564 Y65.962 E55.5474
G1 X67.609 Y65.873 E55.55237
G1 X69.064 Y63.279 E55.70075
G1 X69.118 Y63.192 E55.70586
G1 X70.801 Y60.803 E55.85166
G1 X70.871 Y60.716 E55.85723
G0 F3600 X71.17 Y60.981
G1 F1800 X73.053 Y58.856 E55.99888
G1 X73.101 Y58.808 E56.00227
G1 X75.156 Y56.96 E56.14015
G1 X75.213 Y56.914 E56.1438
G1 X77.421 Y55.37 E56.27822
G1 X77.487 Y55.33 E56.28207
G1 X79.808 Y54.115 E56.41277
G1 X79.88 Y54.083 E56.4167
G1 X82.3 Y53.199 E56.54524
G1 X82.38 Y53.176 E56.54939
G1 X84.866 Y52.64 E56.67627
G1 X84.95 Y52.629 E56.6805
G1 X87.461 Y52.451 E56.80609
G1 X87.503 Y52.449 E56.80818
G1 X132.511 Y52.449 E59.05364
G1 X132.554 Y52.451 E59.05579
G1 X135.057 Y52.631 E59.18099
G1 X135.14 Y52.642 E59.18516
G1 X137.62 Y53.176 E59.31173
G1 X137.7 Y53.199 E59.31588
G1 X140.12 Y54.082 E59.4444
G1 X140.192 Y54.115 E59.44835
G1 X142.513 Y55.331 E59.57908
G1 X142.579 Y55.37 E59.5829
G1 X144.788 Y56.913 E59.71733
G1 X144.845 Y56.959 E59.72099
G1 X146.899 Y58.806 E59.8588
G1 X146.947 Y58.855 E59.86222
G1 X148.828 Y60.982 E60.00388
G1 X148.869 Y61.033 E60.00714
G1 X150.551 Y63.42 E60.15283
G1 X150.584 Y63.473 E60.15594
G1 X152.038 Y66.068 E60.30435
G1 X152.065 Y66.121 E60.30731
G1 X153.284 Y68.912 E60.45926
G1 X153.304 Y68.966 E60.46213
G1 X154.266 Y71.914 E60.61684
G1 X154.281 Y71.966 E60.61954
G1 X154.985 Y75.041 E60.77692
G1 X154.995 Y75.095 E60.77966
G1 X155.415 Y78.229 E60.93742
G1 X155.419 Y78.282 E60.94007
G1 X155.56 Y81.471 E61.09932
G1 X155.561 Y81.498 E61.10067
G1 X155.56 Y138.497 E63.94436
G1 X155.559 Y138.524 E63.94571
G1 X155.417 Y141.72 E64.10532
G1 X155.413 Y141.773 E64.10797
G1 X154.992 Y144.916 E64.26617
G1 X154.982 Y144.969 E64.26886
G1 X154.283 Y148.032 E64.42561
G1 X154.268 Y148.085 E64.42835
G1 X153.305 Y151.035 E64.58317
G1 X153.285 Y151.089 E64.58605
G1 X152.068 Y153.878 E64.73786
G1 X152.041 Y153.932 E64.74087
G1 X150.586 Y156.526 E64.88926
G1 X150.554 Y156.578 E64.8923
G1 X148.871 Y158.967 E65.0381
G1 X148.829 Y159.019 E65.04143
G1 X146.947 Y161.145 E65.18309
G1 X146.899 Y161.193 E65.18647
G1 X144.844 Y163.04 E65.32432
G1 X144.787 Y163.086 E65.32798
G1 X142.578 Y164.631 E65.46246
G1 X142.512 Y164.671 E65.46631
G1 X140.191 Y165.885 E65.59699
G1 X140.119 Y165.916 E65.6009
G1 X137.71 Y166.798 E65.72889
G1 X137.63 Y166.822 E65.73306
G1 X135.134 Y167.36 E65.86044
G1 X135.05 Y167.372 E65.86468
G1 X132.532 Y167.55 E65.99061
G1 X132.49 Y167.551 E65.99271
G1 X87.503 Y167.55 E68.23712
G1 X87.46 Y167.548 E68.23927
G1 X84.936 Y167.368 E68.36551
G1 X84.853 Y167.357 E68.36969
G1 X82.368 Y166.822 E68.49651
G1 X82.288 Y166.798 E68.50067
G1 X79.868 Y165.912 E68.62924
G1 X79.795 Y165.88 E68.63322
G1 X77.473 Y164.663 E68.76401
G1 X77.408 Y164.623 E68.76782
G1 X75.203 Y163.078 E68.90215
G1 X75.146 Y163.033 E68.90577
G1 X73.092 Y161.185 E69.04361
G1 X73.044 Y161.136 E69.04704
G1 X71.163 Y159.009 E69.1887
G1 X71.121 Y158.957 E69.19203
G1 X69.442 Y156.569 E69.33767
G1 X69.41 Y156.517 E69.34071
G1 X67.956 Y153.923 E69.48907
G1 X67.929 Y153.87 E69.49204
G1 X66.71 Y151.077 E69.64408
G1 X66.69 Y151.023 E69.64695
G1 X65.73 Y148.076 E69.80158
G1 X65.715 Y148.024 E69.80428
G1 X65.014 Y144.959 E69.96114
G1 X65.004 Y144.905 E69.96388
G1 X64.585 Y141.774 E70.12148
G1 X64.581 Y141.721 E70.12413
G1 X64.439 Y138.534 E70.28329
G1 X64.438 Y138.507 E70.28464
G1 X64.438 Y81.503 E73.12858
G1 X64.439 Y81.476 E73.12993
G1 X64.582 Y78.275 E73.28979
G1 X64.586 Y78.222 E73.29244
G1 X65.008 Y75.084 E73.4504
G1 X65.018 Y75.031 E73.45309
G1 X65.718 Y71.961 E73.61019
G1 X65.733 Y71.908 E73.61294
G1 X66.697 Y68.958 E73.76777
G1 X66.717 Y68.904 E73.77064
G1 X67.931 Y66.122 E73.92208
G1 X67.958 Y66.068 E73.92509
G1 X69.413 Y63.474 E74.07347
G1 X69.445 Y63.422 E74.07652
G1 X71.128 Y61.033 E74.22231
G1 X71.17 Y60.981 E74.22565
G0 F3600 X71.469 Y61.246
G1 F1800 X73.352 Y59.121 E74.3673
G1 X73.368 Y59.105 E74.36843
G1 X75.423 Y57.257 E74.50631
G1 X75.442 Y57.242 E74.50752
G1 X77.65 Y55.698 E74.64194
G1 X77.672 Y55.685 E74.64321
G1 X79.993 Y54.47 E74.77391
G1 X80.017 Y54.459 E74.77523
G1 X82.437 Y53.575 E74.90377
G1 X82.464 Y53.567 E74.90517
G1 X84.95 Y53.031 E75.03205
G1 X84.978 Y53.028 E75.03345
G1 X87.489 Y52.85 E75.15904
G1 X87.503 Y52.849 E75.15974
G1 X132.511 Y52.849 E77.4052
G1 X132.525 Y52.85 E77.4059
G1 X135.028 Y53.03 E77.5311
G1 X135.056 Y53.033 E77.5325
G1 X137.536 Y53.567 E77.65907
G1 X137.563 Y53.575 E77.66047
G1 X139.983 Y54.458 E77.78899
G1 X140.007 Y54.469 E77.79031
G1 X142.328 Y55.685 E77.92103
G1 X142.35 Y55.698 E77.92231
G1 X144.559 Y57.241 E78.05674
G1 X144.578 Y57.256 E78.05795
G1 X146.632 Y59.103 E78.19576
G1 X146.648 Y59.12 E78.19692
G1 X148.529 Y61.247 E78.33858
G1 X148.542 Y61.264 E78.33965
G1 X150.224 Y63.651 E78.48533
G1 X150.235 Y63.668 E78.48635
G1 X151.689 Y66.263 E78.63475
G1 X151.698 Y66.281 E78.63575
