;FLAVOR:Marlin
;TIME:11117
;Filament used: 6.22697m
;Layer height: 0.1
;Generated with Cura_SteamEngine 3.3.1
M190 S60
M104 S200
M109 S200
M82 ;absolute extrusion mode
G21 ;metric values
G90 ;absolute positioning
M82 ;set extruder to absolute mode
M107 ;start with the fan off
G28 X0 Y0 ;move X/Y to min endstops
G28 Z0 ;move Z to min endstops
G1 Z15.0 F9000 ;move the platform down 15mm
G92 E0 ;zero the extruded length
G1 F200 E3 ;extrude 3mm of feed stock
G92 E0 ;zero the extruded length again
G1 F9000;Put printing message on LCD screen
M117 Printing...
G92 E0
G1 F1500 E-6.5
;LAYER_COUNT:16
;LAYER:0
M107
G0 F3600 X70.236 Y60.159 Z0.3
;TYPE:SKIRT
G1 F1500 E0
G1 F1800 X72.121 Y58.03 E0.14187
G1 X72.264 Y57.886 E0.15199
G1 X74.32 Y56.034 E0.29004
G1 X74.493 Y55.896 E0.30108
G1 X76.704 Y54.349 E0.43571
G1 X76.901 Y54.229 E0.44722
G1 X79.225 Y53.012 E0.5781
G1 X79.439 Y52.918 E0.58976
G1 X81.863 Y52.027 E0.71861
G1 X82.104 Y51.957 E0.73113
G1 X84.591 Y51.42 E0.85806
G1 X84.844 Y51.383 E0.87082
G1 X87.376 Y51.204 E0.99746
G1 X87.503 Y51.2 E1.0038
G1 X132.497 Y51.2 E3.24856
G1 X132.624 Y51.204 E3.25489
G1 X135.154 Y51.383 E3.38143
G1 X135.406 Y51.419 E3.39413
G1 X137.882 Y51.953 E3.5205
G1 X138.123 Y52.023 E3.53302
G1 X140.545 Y52.911 E3.66172
G1 X140.759 Y53.006 E3.6734
G1 X143.084 Y54.222 E3.8043
G1 X143.28 Y54.341 E3.81574
G1 X145.495 Y55.887 E3.95051
G1 X145.67 Y56.025 E3.96162
G1 X148.035 Y58.155 E4.12041
G1 X148.199 Y58.325 E4.1322
G1 X149.784 Y60.183 E4.25404
G1 X149.888 Y60.316 E4.26246
G1 X151.57 Y62.71 E4.40843
G1 X151.667 Y62.864 E4.41751
G1 X153.126 Y65.463 E4.56621
G1 X153.206 Y65.625 E4.57523
G1 X154.424 Y68.419 E4.72729
G1 X154.486 Y68.581 E4.73594
G1 X155.448 Y71.536 E4.89098
G1 X155.49 Y71.691 E4.899
G1 X156.194 Y74.761 E5.05613
G1 X156.224 Y74.924 E5.0644
G1 X156.643 Y78.056 E5.22205
G1 X156.657 Y78.216 E5.23006
G1 X156.798 Y81.414 E5.38977
G1 X156.8 Y81.493 E5.39371
G1 X156.8 Y138.497 E8.23765
G1 X156.798 Y138.576 E8.24159
G1 X156.657 Y141.779 E8.40155
G1 X156.643 Y141.939 E8.40956
G1 X156.221 Y145.084 E8.56787
G1 X156.192 Y145.247 E8.57613
G1 X155.488 Y148.319 E8.73337
G1 X155.444 Y148.475 E8.74145
G1 X154.481 Y151.426 E8.89632
G1 X154.42 Y151.586 E8.90486
G1 X153.202 Y154.384 E9.05711
G1 X153.121 Y154.548 E9.06623
G1 X151.45 Y157.521 E9.23638
G1 X151.336 Y157.699 E9.24693
G1 X149.871 Y159.709 E9.37101
G1 X149.763 Y159.843 E9.3796
G1 X147.877 Y161.971 E9.52146
G1 X147.735 Y162.114 E9.53152
G1 X145.679 Y163.966 E9.66957
G1 X145.506 Y164.104 E9.68061
G1 X143.295 Y165.652 E9.81527
G1 X143.097 Y165.772 E9.82682
G1 X140.773 Y166.988 E9.95767
G1 X140.561 Y167.082 E9.96924
G1 X138.137 Y167.974 E10.09811
G1 X137.894 Y168.045 E10.11074
G1 X135.408 Y168.581 E10.23761
G1 X135.156 Y168.617 E10.25031
G1 X132.624 Y168.796 E10.37695
G1 X132.497 Y168.8 E10.38329
G1 X87.503 Y168.8 E12.62805
G1 X87.376 Y168.796 E12.63439
G1 X84.846 Y168.617 E12.76093
G1 X84.594 Y168.581 E12.77363
G1 X82.117 Y168.048 E12.90003
G1 X81.876 Y167.978 E12.91255
G1 X79.454 Y167.089 E13.04127
G1 X79.24 Y166.994 E13.05295
G1 X76.913 Y165.778 E13.18394
G1 X76.716 Y165.658 E13.19545
G1 X74.505 Y164.112 E13.33005
G1 X74.332 Y163.975 E13.34106
G1 X71.966 Y161.845 E13.49988
G1 X71.801 Y161.675 E13.5117
G1 X70.239 Y159.844 E13.63178
G1 X70.137 Y159.713 E13.64006
G1 X68.429 Y157.289 E13.788
G1 X68.33 Y157.133 E13.79722
G1 X66.874 Y154.538 E13.94567
G1 X66.794 Y154.376 E13.95468
G1 X65.574 Y151.577 E14.10701
G1 X65.512 Y151.415 E14.11567
G1 X64.551 Y148.464 E14.2705
G1 X64.509 Y148.309 E14.27852
G1 X63.805 Y145.239 E14.43565
G1 X63.775 Y145.075 E14.44397
G1 X63.356 Y141.938 E14.60187
G1 X63.342 Y141.779 E14.60983
G1 X63.202 Y138.586 E14.76928
G1 X63.2 Y138.507 E14.77323
G1 X63.2 Y81.503 E17.61717
G1 X63.202 Y81.425 E17.62106
G1 X63.342 Y78.217 E17.78126
G1 X63.356 Y78.055 E17.78937
G1 X63.778 Y74.915 E17.94744
G1 X63.807 Y74.753 E17.95565
G1 X64.511 Y71.681 E18.11288
G1 X64.555 Y71.525 E18.12097
G1 X65.518 Y68.573 E18.27588
G1 X65.579 Y68.412 E18.28447
G1 X66.798 Y65.615 E18.43669
G1 X66.879 Y65.452 E18.44577
G1 X68.55 Y62.478 E18.61596
G1 X68.665 Y62.299 E18.62658
G1 X70.13 Y60.291 E18.75059
G1 X70.236 Y60.159 E18.75903
G0 F3600 X70.536 Y60.424
G1 F1800 X72.421 Y58.295 E18.9009
G1 X72.532 Y58.183 E18.90876
G1 X74.588 Y56.331 E19.04682
G1 X74.722 Y56.224 E19.05537
G1 X76.933 Y54.677 E19.19
G1 X77.087 Y54.584 E19.19897
G1 X79.411 Y53.367 E19.32986
G1 X79.577 Y53.293 E19.33892
G1 X82.001 Y52.402 E19.46777
G1 X82.189 Y52.348 E19.47753
G1 X84.676 Y51.811 E19.60446
G1 X84.872 Y51.782 E19.61435
G1 X87.404 Y51.603 E19.74098
G1 X87.503 Y51.6 E19.74593
G1 X132.497 Y51.6 E21.99069
G1 X132.596 Y51.603 E21.99563
G1 X135.126 Y51.782 E22.12216
G1 X135.322 Y51.81 E22.13204
G1 X137.798 Y52.344 E22.25841
G1 X137.985 Y52.399 E22.26814
G1 X140.407 Y53.287 E22.39684
G1 X140.574 Y53.36 E22.40593
G1 X142.899 Y54.576 E22.53683
G1 X143.051 Y54.669 E22.54572
G1 X145.266 Y56.215 E22.68048
G1 X145.402 Y56.323 E22.68915
G1 X147.767 Y58.453 E22.84794
G1 X147.895 Y58.584 E22.85707
G1 X149.48 Y60.442 E22.97892
G1 X149.561 Y60.546 E22.98549
G1 X151.243 Y62.94 E23.13146
G1 X151.318 Y63.06 E23.13852
G1 X152.777 Y65.659 E23.28722
G1 X152.839 Y65.785 E23.29423
G1 X154.057 Y68.579 E23.44629
G1 X154.105 Y68.705 E23.45302
G1 X155.067 Y71.66 E23.60806
G1 X155.101 Y71.78 E23.61428
G1 X155.805 Y74.85 E23.77142
G1 X155.828 Y74.977 E23.77786
G1 X156.247 Y78.109 E23.9355
G1 X156.258 Y78.233 E23.94172
G1 X156.399 Y81.431 E24.10142
G1 X156.4 Y81.493 E24.10451
G1 X156.4 Y138.497 E26.94845
G1 X156.399 Y138.559 E26.95155
G1 X156.258 Y141.762 E27.1115
G1 X156.247 Y141.886 E27.11771
G1 X155.825 Y145.031 E27.27602
G1 X155.802 Y145.158 E27.28246
G1 X155.098 Y148.23 E27.4397
G1 X155.064 Y148.351 E27.44597
G1 X154.101 Y151.302 E27.60083
G1 X154.054 Y151.427 E27.6075
G1 X152.836 Y154.225 E27.75974
G1 X152.772 Y154.352 E27.76684
G1 X151.101 Y157.325 E27.93698
G1 X151.012 Y157.464 E27.94522
G1 X149.547 Y159.474 E28.06931
G1 X149.464 Y159.578 E28.07595
G1 X147.578 Y161.706 E28.21781
G1 X147.467 Y161.817 E28.22564
G1 X145.411 Y163.669 E28.36369
G1 X145.277 Y163.776 E28.37225
G1 X143.066 Y165.324 E28.5069
G1 X142.912 Y165.417 E28.51588
G1 X140.588 Y166.633 E28.64674
G1 X140.422 Y166.707 E28.6558
G1 X137.998 Y167.599 E28.78467
G1 X137.81 Y167.654 E28.79444
G1 X135.324 Y168.19 E28.92131
G1 X135.128 Y168.218 E28.93119
G1 X132.596 Y168.397 E29.05783
G1 X132.497 Y168.4 E29.06277
G1 X87.503 Y168.4 E31.30753
G1 X87.404 Y168.397 E31.31247
G1 X84.874 Y168.218 E31.43901
G1 X84.678 Y168.19 E31.44889
G1 X82.201 Y167.657 E31.57529
G1 X82.014 Y167.602 E31.58502
G1 X79.592 Y166.713 E31.71374
G1 X79.426 Y166.64 E31.72278
G1 X77.099 Y165.424 E31.85377
G1 X76.945 Y165.33 E31.86277
G1 X74.734 Y163.784 E31.99737
G1 X74.599 Y163.677 E32.00597
G1 X72.233 Y161.547 E32.16479
G1 X72.105 Y161.416 E32.17393
G1 X70.543 Y159.585 E32.294
G1 X70.464 Y159.482 E32.30048
G1 X68.756 Y157.058 E32.44842
G1 X68.679 Y156.937 E32.45558
G1 X67.223 Y154.342 E32.60403
G1 X67.161 Y154.216 E32.61103
G1 X65.941 Y151.417 E32.76336
G1 X65.893 Y151.292 E32.77004
G1 X64.932 Y148.341 E32.92488
G1 X64.898 Y148.22 E32.93115
G1 X64.194 Y145.15 E33.08829
G1 X64.171 Y145.022 E33.09478
G1 X63.752 Y141.885 E33.25267
G1 X63.741 Y141.761 E33.25888
G1 X63.601 Y138.568 E33.41834
G1 X63.6 Y138.507 E33.42138
G1 X63.6 Y81.503 E36.26532
G1 X63.601 Y81.442 E36.26836
G1 X63.741 Y78.234 E36.42856
G1 X63.752 Y78.109 E36.43482
G1 X64.174 Y74.969 E36.59289
G1 X64.197 Y74.842 E36.59933
G1 X64.901 Y71.77 E36.75656
G1 X64.935 Y71.649 E36.76283
G1 X65.898 Y68.697 E36.91775
G1 X65.946 Y68.572 E36.92443
G1 X67.165 Y65.775 E37.07665
G1 X67.227 Y65.648 E37.0837
G1 X68.898 Y62.674 E37.25389
G1 X68.988 Y62.535 E37.26215
G1 X70.453 Y60.527 E37.38616
G1 X70.536 Y60.424 E37.39276
G0 F3600 X70.835 Y60.689
G1 F1800 X72.72 Y58.56 E37.53462
G1 X72.8 Y58.48 E37.54027
G1 X74.856 Y56.628 E37.67832
G1 X74.952 Y56.552 E37.68443
G1 X77.163 Y55.005 E37.81906
G1 X77.272 Y54.938 E37.82544
G1 X79.596 Y53.721 E37.95632
G1 X79.715 Y53.668 E37.96282
G1 X82.139 Y52.777 E38.09166
G1 X82.273 Y52.739 E38.09861
G1 X84.76 Y52.202 E38.22555
G1 X84.9 Y52.181 E38.23261
G1 X87.432 Y52.002 E38.35925
G1 X87.503 Y52 E38.36279
G1 X132.497 Y52 E40.60755
G1 X132.568 Y52.002 E40.6111
G1 X135.098 Y52.181 E40.73763
G1 X135.238 Y52.201 E40.74469
G1 X137.714 Y52.735 E40.87106
G1 X137.847 Y52.774 E40.87797
G1 X140.269 Y53.662 E41.00667
G1 X140.388 Y53.715 E41.01317
G1 X142.713 Y54.931 E41.14407
G1 X142.822 Y54.997 E41.15043
G1 X145.037 Y56.543 E41.28519
G1 X145.134 Y56.62 E41.29137
G1 X147.499 Y58.75 E41.45016
G1 X147.591 Y58.844 E41.45672
G1 X149.176 Y60.702 E41.57857
G1 X149.233 Y60.776 E41.58323
G1 X150.915 Y63.17 E41.72919
G1 X150.969 Y63.255 E41.73422
G1 X152.428 Y65.854 E41.88292
G1 X152.473 Y65.944 E41.88794
G1 X153.691 Y68.738 E42.04
G1 X153.725 Y68.828 E42.0448
G1 X154.687 Y71.783 E42.19984
G1 X154.711 Y71.869 E42.2043
G1 X155.415 Y74.939 E42.36143
G1 X155.431 Y75.03 E42.36604
G1 X155.85 Y78.162 E42.52369
G1 X155.858 Y78.251 E42.52815
G1 X155.999 Y81.449 E42.68785
G1 X156 Y81.493 E42.69005
G1 X156 Y138.497 E45.53399
G1 X155.999 Y138.541 E45.53619
G1 X155.858 Y141.744 E45.69614
G1 X155.85 Y141.833 E45.7006
G1 X155.428 Y144.978 E45.85891
G1 X155.412 Y145.068 E45.86347
G1 X154.708 Y148.14 E46.0207
G1 X154.684 Y148.227 E46.02521
G1 X153.721 Y151.178 E46.18007
G1 X153.687 Y151.267 E46.18483
G1 X152.469 Y154.065 E46.33707
G1 X152.424 Y154.156 E46.34214
G1 X150.753 Y157.129 E46.51228
G1 X150.689 Y157.228 E46.51817
G1 X149.224 Y159.238 E46.64225
G1 X149.164 Y159.312 E46.64701
G1 X147.278 Y161.44 E46.78887
G1 X147.199 Y161.52 E46.79448
G1 X145.143 Y163.372 E46.93253
G1 X145.048 Y163.448 E46.9386
G1 X142.837 Y164.996 E47.07326
G1 X142.727 Y165.063 E47.07968
G1 X140.403 Y166.279 E47.21054
G1 X140.284 Y166.331 E47.21702
G1 X137.86 Y167.223 E47.34588
G1 X137.726 Y167.263 E47.35286
G1 X135.24 Y167.799 E47.47973
G1 X135.1 Y167.819 E47.48679
G1 X132.568 Y167.998 E47.61343
G1 X132.497 Y168 E47.61697
G1 X87.503 Y168 E49.86173
G1 X87.432 Y167.998 E49.86527
G1 X84.902 Y167.819 E49.99181
G1 X84.763 Y167.799 E49.99882
G1 X82.286 Y167.266 E50.12522
G1 X82.151 Y167.227 E50.13224
G1 X79.729 Y166.338 E50.26095
G1 X79.611 Y166.285 E50.26741
G1 X77.284 Y165.069 E50.3984
G1 X77.174 Y165.003 E50.4048
G1 X74.963 Y163.457 E50.53939
G1 X74.867 Y163.38 E50.54553
G1 X72.501 Y161.25 E50.70436
G1 X72.409 Y161.156 E50.71092
G1 X70.847 Y159.325 E50.831
G1 X70.791 Y159.252 E50.83559
G1 X69.083 Y156.828 E50.98353
G1 X69.028 Y156.741 E50.98866
G1 X67.572 Y154.146 E51.13711
G1 X67.527 Y154.057 E51.14209
G1 X66.307 Y151.258 E51.29442
G1 X66.273 Y151.168 E51.29922
G1 X65.312 Y148.217 E51.45405
G1 X65.288 Y148.131 E51.45851
G1 X64.584 Y145.061 E51.61565
G1 X64.568 Y144.969 E51.62031
G1 X64.149 Y141.832 E51.7782
G1 X64.141 Y141.744 E51.78261
G1 X64.001 Y138.551 E51.94206
G1 X64 Y138.507 E51.94426
G1 X64 Y81.503 E54.7882
G1 X64.001 Y81.459 E54.79039
G1 X64.141 Y78.251 E54.95059
G1 X64.149 Y78.162 E54.95505
G1 X64.571 Y75.022 E55.11312
G1 X64.587 Y74.932 E55.11768
G1 X65.291 Y71.86 E55.27491
G1 X65.315 Y71.773 E55.27942
G1 X66.278 Y68.821 E55.43433
G1 X66.312 Y68.731 E55.43913
G1 X67.531 Y65.934 E55.59135
G1 X67.576 Y65.844 E55.59637
G1 X69.247 Y62.87 E55.76656
G1 X69.311 Y62.771 E55.77244
G1 X70.776 Y60.763 E55.89645
G1 X70.835 Y60.689 E55.90117
G0 F3600 X71.135 Y60.954
G1 F1800 X73.02 Y58.825 E56.04304
G1 X73.067 Y58.777 E56.04639
G1 X75.123 Y56.925 E56.18444
G1 X75.181 Y56.879 E56.18813
G1 X77.392 Y55.332 E56.32276
G1 X77.458 Y55.292 E56.32661
G1 X79.782 Y54.075 E56.45749
G1 X79.853 Y54.044 E56.46136
G1 X82.277 Y53.153 E56.5902
G1 X82.357 Y53.13 E56.59435
G1 X84.844 Y52.593 E56.72129
G1 X84.929 Y52.58 E56.72558
G1 X87.461 Y52.401 E56.85222
G1 X87.503 Y52.4 E56.85431
G1 X132.497 Y52.4 E59.09907
G1 X132.539 Y52.401 E59.10117
G1 X135.069 Y52.58 E59.22771
G1 X135.153 Y52.592 E59.23194
G1 X137.629 Y53.126 E59.35831
G1 X137.71 Y53.15 E59.36252
G1 X140.132 Y54.038 E59.49122
G1 X140.203 Y54.069 E59.49509
G1 X142.528 Y55.285 E59.62599
G1 X142.593 Y55.325 E59.6298
G1 X144.808 Y56.871 E59.76456
G1 X144.867 Y56.917 E59.76829
G1 X147.232 Y59.047 E59.92708
G1 X147.286 Y59.104 E59.931
G1 X148.871 Y60.962 E60.05284
G1 X148.906 Y61.006 E60.05565
G1 X150.588 Y63.4 E60.20162
G1 X150.62 Y63.451 E60.20462
G1 X152.079 Y66.05 E60.35332
G1 X152.106 Y66.104 E60.35633
G1 X153.324 Y68.898 E60.50839
G1 X153.345 Y68.952 E60.51128
G1 X154.307 Y71.907 E60.66633
G1 X154.321 Y71.959 E60.66901
G1 X155.025 Y75.029 E60.82615
G1 X155.035 Y75.083 E60.82889
G1 X155.454 Y78.215 E60.98654
G1 X155.458 Y78.269 E60.98924
G1 X155.599 Y81.467 E61.14894
G1 X155.6 Y81.493 E61.15024
G1 X155.6 Y138.497 E63.99418
G1 X155.599 Y138.523 E63.99548
G1 X155.458 Y141.726 E64.15543
G1 X155.454 Y141.78 E64.15814
G1 X155.032 Y144.925 E64.31645
G1 X155.022 Y144.979 E64.31919
G1 X154.318 Y148.051 E64.47642
G1 X154.303 Y148.103 E64.47912
G1 X153.34 Y151.054 E64.63399
G1 X153.32 Y151.107 E64.63682
G1 X152.102 Y153.905 E64.78906
G1 X152.075 Y153.96 E64.79212
G1 X150.404 Y156.933 E64.96226
G1 X150.366 Y156.992 E64.96577
G1 X148.901 Y159.002 E65.08985
G1 X148.865 Y159.047 E65.09273
G1 X146.979 Y161.175 E65.23459
G1 X146.932 Y161.223 E65.23794
G1 X144.876 Y163.075 E65.376
G1 X144.818 Y163.121 E65.37969
G1 X142.607 Y164.669 E65.51434
G1 X142.541 Y164.709 E65.51819
G1 X140.217 Y165.925 E65.64905
G1 X140.146 Y165.956 E65.65292
G1 X137.722 Y166.848 E65.78178
G1 X137.641 Y166.872 E65.78599
G1 X135.155 Y167.408 E65.91287
G1 X135.071 Y167.42 E65.9171
G1 X132.539 Y167.599 E66.04374
G1 X132.497 Y167.6 E66.04584
G1 X87.503 Y167.6 E68.2906
G1 X87.461 Y167.599 E68.29269
G1 X84.931 Y167.42 E68.41923
G1 X84.847 Y167.408 E68.42346
G1 X82.37 Y166.875 E68.54987
G1 X82.289 Y166.851 E68.55409
G1 X79.867 Y165.962 E68.6828
G1 X79.796 Y165.931 E68.68667
G1 X77.469 Y164.715 E68.81766
G1 X77.403 Y164.675 E68.82151
G1 X75.192 Y163.129 E68.95611
G1 X75.135 Y163.083 E68.95976
G1 X72.769 Y160.953 E69.11859
G1 X72.714 Y160.896 E69.12254
G1 X71.152 Y159.065 E69.24261
G1 X71.118 Y159.022 E69.24535
G1 X69.41 Y156.598 E69.39329
G1 X69.377 Y156.546 E69.39636
G1 X67.921 Y153.951 E69.54481
G1 X67.894 Y153.897 E69.54782
G1 X66.674 Y151.098 E69.70015
G1 X66.653 Y151.044 E69.70304
G1 X65.692 Y148.093 E69.85788
G1 X65.678 Y148.041 E69.86057
G1 X64.974 Y144.971 E70.01771
G1 X64.964 Y144.916 E70.02049
G1 X64.545 Y141.779 E70.17839
G1 X64.541 Y141.726 E70.18104
G1 X64.401 Y138.533 E70.34049
G1 X64.4 Y138.507 E70.34179
G1 X64.4 Y81.503 E73.18573
G1 X64.401 Y81.477 E73.18703
G1 X64.541 Y78.269 E73.34723
G1 X64.545 Y78.215 E73.34993
G1 X64.967 Y75.075 E73.508
G1 X64.977 Y75.021 E73.51074
G1 X65.681 Y71.949 E73.66797
G1 X65.696 Y71.897 E73.67067
G1 X66.659 Y68.945 E73.82559
G1 X66.679 Y68.891 E73.82846
G1 X67.898 Y66.094 E73.98068
G1 X67.925 Y66.04 E73.98369
G1 X69.596 Y63.066 E74.15388
G1 X69.634 Y63.006 E74.15742
G1 X71.099 Y60.998 E74.28143
G1 X71.135 Y60.954 E74.28427
G0 F3600 X71.434 Y61.219
G1 F1800 X73.319 Y59.09 E74.42613
G1 X73.335 Y59.074 E74.42726
G1 X75.391 Y57.222 E74.56532
G1 X75.41 Y57.207 E74.56652
G1 X77.621 Y55.66 E74.70115
G1 X77.643 Y55.647 E74.70243
G1 X79.967 Y54.43 E74.83331
G1 X79.991 Y54.419 E74.83462
G1 X82.415 Y53.528 E74.96347
G1 X82.442 Y53.521 E74.96486
G1 X84.929 Y52.984 E75.0918
G1 X84.957 Y52.979 E75.09322
G1 X87.489 Y52.8 E75.21985
G1 X132.511 Y52.8 E77.46601
G1 X135.041 Y52.979 E77.59255
G1 X135.069 Y52.983 E77.59396
G1 X137.545 Y53.517 E77.72033
G1 X137.572 Y53.525 E77.72173
G1 X139.994 Y54.413 E77.85043
G1 X140.018 Y54.424 E77.85175
G1 X142.343 Y55.64 E77.98265
G1 X142.364 Y55.653 E77.98388
G1 X144.579 Y57.199 E78.11864
G1 X144.599 Y57.214 E78.11989
G1 X146.964 Y59.344 E78.27868
G1 X146.982 Y59.363 E78.27999
G1 X148.567 Y61.221 E78.40183
G1 X148.579 Y61.236 E78.40279
G1 X150.261 Y63.63 E78.54876
G1 X150.271 Y63.647 E78.54974
G1 X151.73 Y66.246 E78.69844
G1 X151.739 Y66.264 E78.69944
G1 X152.957 Y69.058 E78.85151
G1 X152.964 Y69.076 E78.85247
G1 X153.926 Y72.031 E79.00751
G1 X153.931 Y72.048 E79.00839
